X:439
T:Lady Mary Ramsay
R:Reel
B:The Athole Collection
M:C|
L:1/8
K:E_
G|E3c B<G G>c|B<G c>A B<G G>e|E3c B<G G>B|c>EB>G F/F/F F:|
e/f/|g<e e>g f<d d>f|e<c c>e B<G Ge/f/|g<e e>g f>de>B|c<e B>G F/F/F Fe/f/|
g<e e>g f<d d>f|e<g c>e B<G G>B|e<g d>f c<e B>c|G<e B>G F/F/F F||

